X: 36974
T: Shuter's
R: hornpipe
M: 4/4
K: Gmajor
|:G2 G2 G>AB>c|d>cB>A G>AB>G|A2 A2 A2 e>d|c>BA>G F>AF>D|
G2 G2 G>AB>c|d>cB>A G2 g2|f>af>d e>ge>^c|d2 d2 d4:|
|:A2 A2 A2 B>c|d>BA>G F>AF>D|d2 d2 d2 e>f|g>ed>c B>dB>G|
e2 c2 c2 g>e|d2 B2 B2 g2|e>ce>c B>AG>F|G2 G2 G4:|
G2 G2 G2 Bc|dcBA G2 BG|A2 A2 A2 ed|cBAG F2 FD|
G2 G2 G2 Bc|dcBA G2 g2|fafd ege^c|d2 f2 d2:|
A2 A2 A2 Bc|dBAG F2 D2|d2 d2 d2 ef|gedc B2 G2|
e2 c2 c2 g2|d2 B2 B2 g2|e2 c2 BAGF|G2 B2 G2:|

